X:1
T:Title
%%score 1 { 2 | 3 }
L:1/8
Q:1/4=113
M:4/4
K:D
V:1 treble nm="Grand Piano, Soprano"
V:2 bass nm="Choir Pad, Huron, LMD"
V:3 bass 
V:1
 [B,D]4 [DG]2 [DA]2 | [DB]2 [EG]2 [Dd]2 [Dd]2 | [DB]4 [DB]4 | [DA]2 [Dd]2 [DB]2 [Ge]2 | %4
w: By~The~Sabbath~Hym~and~Tune~Book,~1859 * *||||
 [Fd]2 [Ec]2 [Fd]4 | [B,D]4 [DG]2 [DA]2 | [DB]2 [EG]2 [Dd]2 [Dd]2 | [DB]4 [DB]4 | %8
w: ||||
 [DA]2 [Dd]2 [DB]2 [Ge]2 | [Fd]2 [Ec]2 [Fd]4 | [FA]4 [EA]2 [CA]2 | [DF]2 D2 [DG]2 [DA]2 | %12
w: ||||
 [DB]4 [DB]4 | [DA]2 [B,B]2 [B,G]2 [DF]2 | [DE]2 [CE]2 D4 | [B,D]4 [DG]2 [DA]2 | %16
w: ||||
 [DB]2 [EG]2 [Dd]2 [Dd]2 | [DB]4 [Dd]4 | [B,G]2 [EA]2 [DF]2 [CG]>[Ac] | [DB]2 [=CA]2 [B,G]4- | %20
w: ||||
 [B,G]4 z4 |] %21
w: |
V:2
 G,4 G,2 F,2 | G,2 G,2 A,2 F,2 | G,4 G,4 | A,2 F,2 G,2 B,2 | A,2 A,2 A,4 | G,4 G,2 F,2 | %6
 G,2 G,2 A,2 F,2 | G,4 G,4 | A,2 F,2 G,2 B,2 | A,2 A,2 A,4 | A,4 A,2 A,2 | A,2 A,2 G,2 F,2 | %12
 G,4 G,4 | F,2 F,2 G,2 B,2 | B,2 A,2 F,4 | G,4 G,2 F,2 | G,2 G,2 A,2 F,2 | G,4 G,4 | %18
 G,2 =C2 A,2 G,2 | G,2 F,2 G,4- | G,4 z4 |] %21
V:3
 G,,4 B,,2 D,2 | z2 E,2 F,2 D,2 | z8 | F,2 D,2 z2 E,2 | F,2 z2 D,4 | G,,4 B,,2 D,2 | %6
 z2 E,2 F,2 D,2 | z8 | F,2 D,2 z2 E,2 | F,2 z2 D,4 | D,4 C,2 A,,2 | D,2 =C,2 B,,2 D,2 | z4 G,,4 | %13
 D,2 ^D,2 E,2 B,,2 | G,,2 A,,2 D,4 | G,,4 B,,2 D,2 | z2 E,2 F,2 D,2 | z4 B,,4 | E,2 =C,2 D,2 E,2 | %19
 D,2 D,2 G,,4- | G,,4 z4 |] %21

